!!!!SEGMENT: pl-kk--kk-i-482--010_zieleniewicz-mathias--msza-2ga-agnus.krn
!!!cenid: 17xx:1918
!!!COM: Zieleniewicz, Mathias
!!!COM-rismID:
!!!CDT: <1724->1763
!!!CNT: Polish
!!!OPR: Msza 2ga
!!!OTL: Agnus
!!!OMV: 005
!!!PDT: 1724
!!!AGN: Sacred; Mass
!!!SMS-siglum: PL-Kk
!!!SMS-shelfmark: Kk.I.482
!!!SMS-shelfwork: 002-005 M
!!!SMS-variant: Soprano. PL-Kk Kk.I.482:0016-0017; Alto. PL-Kk Kk.I.482:0021; Tenore. PL-Kk Kk.I.482:0026-0027; Basso. PL-Kk Kk.I.482:0030-0031
!!!SMS-altvar: Soprano PL-Kk Kk.I.482:0036-0037; Alto. PL-Kk Kk.I.482:0040-0041; Tenore. PL-Kk Kk.I.482:0045
!!!NIFC-rismSourceID: 1001140324
!!!NIFC-islandoraID: pl-kk:14397
!!!URL-pdf-islandora: https://repozytorium.nifc.pl/islandora/object/pl-kk%3A14397/datastream/PDF/view
!!!URL-scan: https://polish.musicsources.pl/pl/lokalizacje/galeria/rekopisy/6089 @EN{Scan on Polish Music Herritage in Open Access Website} @PL{Skany w portalu Dziedzictwo Muzyki Polskiej w otwartym dostępie}
!!!ONB-nifc: UWAGA: zakres skanów 0015-0031. Proszę uzupełnić pola !!!SMS dot. partytury i głosów. UWAGA: w zbiorze Msza Isza i Msza 2ga. Części Mszy 2giej: 6. Kyrie, 7. Gloria, 8. Sanctus, 9. Benedictus, 10. Agnus
!!!AIN: 1 alto 1 bass 1 soprn 1 tenor
!!!key:
**kern	**text	**kern	**text	**kern	**text	**kern	**text
*part4	*part4	*part3	*part3	*part2	*part2	*part1	*part1
*staff4	*staff4	*staff3	*staff3	*staff2	*staff2	*staff1	*staff1
*Ibass	*	*Itenor	*	*Ialto	*	*Isoprn	*
*I"Basso.	*	*I"Tenore.	*	*I"Alto.	*	*I"Soprano.	*
*I'B	*	*I'T	*	*I'A	*	*I'S	*
*clefF4	*	*clefC4	*	*clefC3	*	*clefC1	*
*k[b-]	*	*k[b-]	*	*k[b-]	*	*k[b-]	*
*d:	*	*d:	*	*d:	*	*d:	*
*M2/2	*	*M2/2	*	*M2/2	*	*M2/2	*
*met(c|)	*	*met(c|)	*	*met(c|)	*	*met(c|)	*
=1	=1	=1	=1	=1	=1	=1	=1
*all\right	*	*all\right	*	*all\right	*	*all\right	*
!LO:TX:a:t=3.	!	!LO:TX:a:t=4.	!	!	!	!LO:TX:a:t=1.	!
0r	.	00r	.	2r	.	1r	.
*	*	*	*	*2\right	*	*	*
.	.	.	.	[2a\	A-	.	.
=2	=2	=2	=2	=2	=2	=2	=2
.	.	.	.	2a\]	.	1b-	A-
.	.	.	.	[2g\	.	.	.
=3	=3	=3	=3	=3	=3	=3	=3
*	*	*	*	*	*	*2\right	*
1r	.	.	.	2g\]	.	2a\	-gnus
.	.	.	.	2f\	-gnus	[2dd\	De-
=4	=4	=4	=4	=4	=4	=4	=4
2r	.	.	.	1e	De-	2dd\]	.
*2\right	*	*	*	*	*	*	*
[2A\	A-	.	.	.	.	2cc#X\	.
=5	=5	=5	=5	=5	=5	=5	=5
2A\]	.	1B-X	A-	2d\	-i,	2dd\	-i
[2G\	-gnus	.	.	2r	.	2r	.
=6	=6	=6	=6	=6	=6	=6	=6
!	!	!	!	!LO:TX:a:t=1.	!	!LO:TX:a:t=2	!
2G\]	De-	2A\	.	1r	.	0r	.
*	*	*2\right	*	*	*	*	*
2F\	.	2d\	-gnus	.	.	.	.
=7	=7	=7	=7	=7	=7	=7	=7
1E	.	2d\	De-	2r	.	.	.
.	.	2c#X\	.	2g\	qui	.	.
=8	=8	=8	=8	=8	=8	=8	=8
2D\	-i	1d	-i,	2g\	tol-	1a	qui
2d\	qui	.	.	4f\	-lis	.	.
.	.	.	.	4f\	pec-	.	.
=9	=9	=9	=9	=9	=9	=9	=9
2d\	tol-	2r	.	2e\	-ca-	2g\	tol-
4c\	-lis	2d\	qui	2f#X\	-ta	4a\	-lis
4c\	pec-	.	.	.	.	4a\	pec-
!	!	!	!	!LO:LB:g=original	!	!LO:LB:g=original	!
=10	=10	=10	=10	=10	=10	=10	=10
2B-X\	-ca-	2d\	tol-	1g	mun-	2.b-\	-ca-
4G\	-ta	4d\	-lis	.	.	.	.
4G\	pec-	4d\	pec-	.	.	4g\	-ta
!LO:LB:g=original	!	!	!	!	!	!	!
=11	=11	=11	=11	=11	=11	=11	=11
2c\	-ca-	[y1c	-ca-	1e	-di,	1g	mun-
2B-X\	-ta	.	.	.	.	.	.
=12	=12	=12	=12	=12	=12	=12	=12
!	!	!LO:N:xstem:cue:vis=4	!	!	!	!	!
2A\	mun-	2c\]	.	[1f	mi-	1a	.
2F\	-di	2c\	-ta	.	.	.	.
!	!	!LO:LB:g=original	!	!	!	!	!
=13	=13	=13	=13	=13	=13	=13	=13
2c\	mi-	2c\	mun-	2f\]	.	1g	-di,
2C/	-se-	2c\	-di	[2e\	.	.	.
=14	=14	=14	=14	=14	=14	=14	=14
4D\	-re-	2A\	mi-	2e\]	.	2.f/	mi-
4E\	.	.	.	.	.	.	.
4F\	.	2A\	-se-	2d\	-se-	.	.
4G\	-re	.	.	.	.	4f/	-se-
=15	=15	=15	=15	=15	=15	=15	=15
2A\	no-	2A\	-re-	4c#X\	-re-	2e/	-re-
.	.	.	.	4c#\	-re	.	.
2D\	-bis	2A\	-re	[2d\	no-	2f/	-re
=16	=16	=16	=16	=16	=16	=16	=16
1A	no-	1A	no-	2d\]	.	1e	no-
.	.	.	.	2c#X\	.	.	.
=17	=17	=17	=17	=17	=17	=17	=17
!LO:TX:a:t=2	!	!LO:TX:a:t=2	!	!LO:TX:a:t=2	!	!LO:TX:a:t=2	!
0D	-bis.	0A	-bis,	0d	-bis,	0f#X	-bis,
=18	=18	=18	=18	=18	=18	=18	=18
!LO:TX:b:i:t=Volti Subitto.	!	!	!	!	!	!	!
.	.	.	.	.	.	.	.
!LO:PB:g=original	!	!	!	!	!	!	!
=19||	=19||	=19||	=19||	=19||	=19||	=19||	=19||
!LO:TX:a:t=3.	!	!	!	!	!	!	!
!LO:TX:b:i:t=Agnus	!	!LO:TX:a:t=2	!	!LO:TX:a:t=1.	!	!	!
0r	.	0r	.	1r	.	2d/	A-
.	.	.	.	.	.	2d/	-gnus
=20	=20	=20	=20	=20	=20	=20	=20
.	.	.	.	2A/	A-	1a	De-
.	.	.	.	2A/	-gnus	.	.
=21	=21	=21	=21	=21	=21	=21	=21
1r	.	2D/	A-	1d	De-	2f/	-i
.	.	2D/	-gnus	.	.	2f/	qui
!	!	!	!	!LO:LB:g=original	!	!LO:LB:g=original	!
=22	=22	=22	=22	=22	=22	=22	=22
2AA/	A-	1A	De-	2c#X\	-i	2e/	tol-
2AA/	-gnus	.	.	2c#\	qui	4a\	-lis
.	.	.	.	.	.	4a\	pec-
=23	=23	=23	=23	=23	=23	=23	=23
1D	De-	2F/	-i	2d\	tol-	1a	-ca-
.	.	2f\	qui	4d\	-lis	.	.
.	.	.	.	4d\	pec-	.	.
=24	=24	=24	=24	=24	=24	=24	=24
2C#X/	-i	2e\	tol-	1e	-ca-	1a	-ta,
2C#/	qui	4e\	-lis	.	.	.	.
.	.	4e\	pec-	.	.	.	.
!	!	!LO:LB:g=original	!	!	!	!	!
=25	=25	=25	=25	=25	=25	=25	=25
2D\	tol-	2d\	-ca-	1f	.	2a\	pec-
4D\	-lis	2d\	-ta	.	.	2f/	.
4D\	pec-	.	.	.	.	.	.
=26	=26	=26	=26	=26	=26	=26	=26
!	!	!LO:N:vis=1.	!	!	!	!	!
2E\	-ca-	1c	mun-	2g\	.	2e/	-ca-
2F\	-ta	.	.	2f\	-ta	2a\	-ta
=27	=27	=27	=27	=27	=27	=27	=27
!	!	!LO:N:vis=1.	!	!	!	!	!
1Cn	mun-	1c	.	2f\	mun-	1g	mun-
.	.	.	.	2e\	.	.	.
=28	=28	=28	=28	=28	=28	=28	=28
!	!	!LO:N:vis=1.	!	!	!	!	!
1F	-di	1c	-di,	1f	-di,	2a\	-di,
.	.	.	.	.	.	[2cc\	mi-
=29	=29	=29	=29	=29	=29	=29	=29
2.BB-X/	mi-	2.d\	mi-	2r	.	2cc\]	.
.	.	.	.	[2g\	mi-	[2b-X\	-se-
4BB-/	-se-	4d\	-se-	.	.	.	.
!LO:LB:g=original	!	!	!	!	!	!	!
=30	=30	=30	=30	=30	=30	=30	=30
2C/	-re-	2e\	-re-	2g\]	.	2b-\]	-re-
2D/	-re	2f\	-re	2f\	-se-	2a\	-re
!	!	!	!	!	!	!LO:PB:g=original	!
=31	=31	=31	=31	=31	=31	=31	=31
2En\	no-	2c#X\	no-	4e\	-re-	2g\	-re-
.	.	.	.	4e\	-re	.	.
4F\	.	2d\	.	2d\	no-	2f/	-re
4G\	.	.	.	.	.	.	.
!	!	!	!	!LO:LB:g=original	!	!	!
=32	=32	=32	=32	=32	=32	=32	=32
2A\	.	1A	.	2d\	.	1e	no-
2AA/	.	.	.	2c#X\	.	.	.
=33	=33	=33	=33	=33	=33	=33	=33
!	!	!LO:TX:a:t=2	!	!LO:TX:a:t=2	!	!LO:TX:a:t=2	!
0D	-bis.	0A	-bis.	0d	-bis,	0f#X	-bis.
=34	=34	=34	=34	=34	=34	=34	=34
!	!	!LO:TX:b:i:t=Volti Subitto.	!	!	!	!	!
.	.	.	.	.	.	.	.
!	!	!LO:PB:g=original	!	!	!	!	!
=35||	=35||	=35||	=35||	=35||	=35||	=35||	=35||
!	!	!	!	!	!	!LO:TX:a:t=1.	!
2r	.	2r	.	2r	.	1r	.
[2B-X\	A-	2d\	A-	2f\	A-	.	.
=36	=36	=36	=36	=36	=36	=36	=36
2B-\]	.	2e-X\	.	2g\	.	1cc	A-
2A\	-gnus	2f\	-gnus	2a\	-gnus	.	.
=37	=37	=37	=37	=37	=37	=37	=37
2A\	De-	2d\	De-	2f\	De-	1b-X	-gnus
[2G\	.	2e-X\	.	2g\	.	.	.
=38	=38	=38	=38	=38	=38	=38	=38
2G\]	.	2c\	-i	2e-X\	-i	1a	De-
[2F\	-i	2d\	qui	2f\	qui	.	.
=39	=39	=39	=39	=39	=39	=39	=39
2F\]	.	2B-X\	tol-	2d\	tol-	2g\	-i
!LO:TX:t=P:problem=brak początku ligatury	!	!	!	!	!	!	!
[2E-X\	qui	2c\	.	2e-X\	.	2g\	qui
!LO:LB:g=original	!	!	!	!	!	!	!
=40	=40	=40	=40	=40	=40	=40	=40
2E-X\]	tol-	2F/	-lis	2c\	-lis,	2a\	tol-
2D\	.	2B-\	qui	4d\	pec-	[2b-X\	.
.	.	.	.	4f\	.	.	.
=41	=41	=41	=41	=41	=41	=41	=41
2C/	-lis	2e-X\	tol-	4g\	-ca-	2b-\]	.
.	.	.	.	4e-X\	.	.	.
2F\	pec-	4e-\	-lis	4c\	-ta	2a\	.
.	.	4e-\	pec-	4c\	pec-	.	.
!	!	!	!	!LO:LB:g=original	!	!LO:LB:g=original	!
=42	=42	=42	=42	=42	=42	=42	=42
4BB-/	-ca-	1d	-ca-	4d\	-ca-	2b-\	-lis,
4C/	.	.	.	4e\	-ta	.	.
4D\	.	.	.	2f\	mun-	2b-\	pec-
4E-X\	.	.	.	.	.	.	.
!	!	!LO:LB:g=original	!	!	!	!	!
=43	=43	=43	=43	=43	=43	=43	=43
1F	-ta	1c	.	1f	-di,	1a	-ca-
=44	=44	=44	=44	=44	=44	=44	=44
2F#X\	pec-	2d\	-ta	2f#X\	tol-	2a\	-ta
2D\	.	2d\	pec-	4f#\	-lis,	2a\	pec-
.	.	.	.	4f#\	pec-	.	.
=45	=45	=45	=45	=45	=45	=45	=45
2G\	-ca-	2d\	-ca-	2g\	-ca-	2b-X\	-ca-
2F\	-ta	2d\	-ta	2a\	-ta	2f/	-ta
=46	=46	=46	=46	=46	=46	=46	=46
2En\	mun-	2c#X\	mun-	2g\	mun-	2g\	mun-
2D\	.	2d\	.	2fn\	.	2a\	.
=47	=47	=47	=47	=47	=47	=47	=47
2A\	-di,	2c#X\	-di	2e\	-di	2a\	-di,
2r	.	2r	.	2r	.	2a\	qui
=48	=48	=48	=48	=48	=48	=48	=48
2r	.	2r	.	2r	.	[1b-X	tol-
2G\	qui	2d\	qui	2g\	pec-	.	.
!LO:LB:g=original	!	!	!	!	!	!	!
=49	=49	=49	=49	=49	=49	=49	=49
2C#X/	tol-	2en\	tol-	2g\	-ca-	2b-\]	.
2D\	-lis	4f\	.	2f\	-ta	2a\	.
.	.	4d\	.	.	.	.	.
=50	=50	=50	=50	=50	=50	=50	=50
1A	pec-	2d\	.	1e	mun-	2a\	-lis,
.	.	2c#X\	.	.	.	2a\	qui
=51	=51	=51	=51	=51	=51	=51	=51
2D/	-ca-	1d	-lis,	1f	-di,	1a	tol-
4D/	-ta	.	.	.	.	.	.
4C/	pec-	.	.	.	.	.	.
!	!	!LO:LB:g=original	!	!	!	!LO:LB:g=original	!
=52	=52	=52	=52	=52	=52	=52	=52
!	!	!	!	!LO:TX:a:t=1.	!	!	!
2BBn/	-ca-	2r	.	1r	.	2.g\	.
2GG/	-ta	[2d\	qui	.	.	.	.
.	.	.	.	.	.	4f/	.
!	!	!	!	!LO:LB:g=original	!	!	!
=53	=53	=53	=53	=53	=53	=53	=53
1C	mun-	2d\]	.	1g	qui	1e-X	.
.	.	[2c\	tol-	.	.	.	.
=54	=54	=54	=54	=54	=54	=54	=54
1D	-di	2c\]	.	2f\	tol-	2d/	-lis,
.	.	2Bn\	-lis,	2f\	-lis	2dd\	pec-
=55	=55	=55	=55	=55	=55	=55	=55
!	!	!	!	!LO:SIC:v:s=4e-	!	!	!
2E-X\	qui	4c\	pec-	4e\	pec-	2cc\	-ca-
.	.	4e-X\	.	4g\	.	.	.
2F\	.	4d\	.	4f\	.	2a\	-ta
!	!	!	!	!LO:SIC:v:s=4e-	!	!	!
.	.	4c\	.	4e\	.	.	.
=56	=56	=56	=56	=56	=56	=56	=56
1G	tol-	4Bn\	-ca-	2d\	-ca-	2g\	pec-
.	.	4A\	.	.	.	.	.
.	.	4G\	.	4d\	-ta	4g\	.
.	.	4d\	-ta,	4g\	pec-	4b-\	.
=57	=57	=57	=57	=57	=57	=57	=57
1G	-lis	2e-X\	pec-	1g	-ca-	2cc\	-ca-
.	.	2d\	.	.	.	2b-\	-ta,
=58	=58	=58	=58	=58	=58	=58	=58
1G	pec-	2e-X\	-ca-	1g	-ta	2cc\	pec-
.	.	2d\	-ta	.	.	2b-\	.
!LO:LB:g=original	!	!	!	!	!	!	!
=59	=59	=59	=59	=59	=59	=59	=59
2G\	-ca-	2c#X\	mun-	2e\	pec-	2a\	-ca-
2F\	.	2d\	-di	2f\	.	2a\	-ta
!	!	!LO:LB:g=original	!	!	!	!	!
=60	=60	=60	=60	=60	=60	=60	=60
2En\	.	2e\	pec-	2c#X\	-ca-	2g\	mun-
2D\	-ta	2A\	.	2d\	-ta	2f/	.
!	!	!	!	!	!	!LO:LB:g=original	!
=61	=61	=61	=61	=61	=61	=61	=61
1A	mun-	1A	-ca-	1c#X	mun-	1e	.
=62	=62	=62	=62	=62	=62	=62	=62
1AA	.	1A	-ta	1d	.	1f	.
=63	=63	=63	=63	=63	=63	=63	=63
!LO:TX:a:t=2	!	!LO:TX:a:t=2.	!	!LO:TX:a:t=2	!	!LO:TX:a:t=2	!
!	!	!	!	!	!	!LO:N:vis=0.	!
0AA	-di.	0A	mundi	0c#X	-di,	0e	-di.
=64	=64	=64	=64	=64	=64	=64	=64
.	.	.	.	.	.	.	.
!	!	!	!	!LO:LB:g=original	!	!	!
=65||	=65||	=65||	=65||	=65||	=65||	=65||	=65||
*M3/2	*	*M3/2	*	*M3/2	*	*M3/2	*
4F\	Do-	1cn	Do-	1f	Do-	1a	Do-
4E\	.	.	.	.	.	.	.
4F\	.	.	.	.	.	.	.
4G\	.	.	.	.	.	.	.
4A\	.	2c\	-na	2f\	-na	2a\	-na
4B-\	-na	.	.	.	.	.	.
=66	=66	=66	=66	=66	=66	=66	=66
4c\	no-	1c	no-	2f\	no-	1g	no-
4C/	.	.	.	.	.	.	.
4E\	.	.	.	2e\	.	.	.
4D\	.	.	.	.	.	.	.
4E\	.	2c\	-bis	2e\	-bis	2g\	-bis
4C\	-bis	.	.	.	.	.	.
!LO:LB:g=original	!	!	!	!	!	!	!
=67	=67	=67	=67	=67	=67	=67	=67
4D/	pa-	1.A	pa-	2e\	pa-	1.f	pa-
4C#X/	.	.	.	.	.	.	.
4D\	.	.	.	2d\	.	.	.
4E\	.	.	.	.	.	.	.
4F\	.	.	.	2d\	-cem	.	.
4G\	-cem,	.	.	.	.	.	.
=68	=68	=68	=68	=68	=68	=68	=68
4A\	do-	1.A	-cem	2d\	do-	1e	-cem,
4AA/	.	.	.	.	.	.	.
4C/	.	.	.	2c\	.	.	.
4BB-X/	.	.	.	.	.	.	.
4AA/	.	.	.	2f\	-na	2cc\	do-
4FF/	-na	.	.	.	.	.	.
=69	=69	=69	=69	=69	=69	=69	=69
4BB-/	no-	1.d	do-	1.f	do-	2cc\	.
4AA/	.	.	.	.	.	.	.
4BB-/	.	.	.	.	.	2b-X\	.
4C/	.	.	.	.	.	.	.
4D\	.	.	.	.	.	2b-\	-na
4E\	-bis	.	.	.	.	.	.
=70	=70	=70	=70	=70	=70	=70	=70
4F\	pa-	1.c	-na	1.f	-na	2a\	no-
4C\	.	.	.	.	.	.	.
4AA/	.	.	.	.	.	1cc	-bis
4C/	.	.	.	.	.	.	.
4AA/	.	.	.	.	.	.	.
4FF/	-cem	.	.	.	.	.	.
!	!	!LO:LB:g=original	!	!	!	!LO:LB:g=original	!
=71	=71	=71	=71	=71	=71	=71	=71
1BB-X	do-	1d	no-	1.f	no-	2cc\	pa-
.	.	.	.	.	.	2b-X\	.
2F\	-na	2c\	-bis	.	.	2a\	.
!LO:LB:g=original	!	!	!	!	!	!	!
=72	=72	=72	=72	=72	=72	=72	=72
1BB-X	pa-	2d\	pa-	1f	.	1.g	-cem,
.	.	1c	.	.	.	.	.
2C/	.	.	.	2e\	-bis,	.	.
=73	=73	=73	=73	=73	=73	=73	=73
2F\	-cem	2c\	-cem,	2f\	pa-	2a\	do-
2D\	do-	2d\	no-	2f\	-cem	2bn\	.
2C/	-na	2e\	-bis	2g\	da	2cc\	-na
!	!	!	!	!LO:LB:g=original	!	!	!
=74	=74	=74	=74	=74	=74	=74	=74
2F\	pa-	2A\	pa-	4f\	no-	1cc	no-
.	.	.	.	4e\	.	.	.
1G	.	1G	.	1d	-bis	.	.
.	.	.	.	.	.	2bn\	-bis
=75	=75	=75	=75	=75	=75	=75	=75
2C/	-cem,	2G/	-cem,	2e\	pa-	2cc\	pa-
2r	.	2r	.	2c\	.	2cc\	-cem
2r	.	2r	.	2c\	-cem	2cc\	da
=76	=76	=76	=76	=76	=76	=76	=76
!LO:TX:a:t=3.	!	!LO:TX:a:t=3.	!	!	!	!	!
!LO:N:vis=0	!	!LO:N:vis=0	!	!	!	!	!
0.r	.	0.r	.	2.d\	do-	2.b-X\	pa-
.	.	.	.	4c\	.	4a\	.
.	.	.	.	4d\	.	4b-\	.
.	.	.	.	4e\	.	4cc\	.
=77	=77	=77	=77	=77	=77	=77	=77
.	.	.	.	2f\	-na	2a\	-cem,
.	.	.	.	2f\	no-	2a\	do-
.	.	.	.	2f\	-bis,	2a\	-na
!	!	!	!	!	!	!LO:LB:g=original	!
=78	=78	=78	=78	=78	=78	=78	=78
1.r	.	1.r	.	2.d\	do-	2.b-X\	no-
.	.	.	.	4d\	-na	4a\	.
.	.	.	.	4e\	no-	4b-\	.
.	.	.	.	4f\	-bis	4a\	-bis
=79	=79	=79	=79	=79	=79	=79	=79
4C/	Do-	1c	do-	2g\	pa-	1.g	pa-
4BBn/	.	.	.	.	.	.	.
4C\	.	.	.	2e\	.	.	.
4D\	.	.	.	.	.	.	.
4E\	.	2c\	-na	2e\	-cem	.	.
4C\	-na	.	.	.	.	.	.
=80	=80	=80	=80	=80	=80	=80	=80
4F\	no-	1c	no-	1f	do-	1a	-cem
4E\	.	.	.	.	.	.	.
4F\	.	.	.	.	.	.	.
4G\	.	.	.	.	.	.	.
4F\	.	2c\	-bis	2f\	-na	2a\	da
4E\	-bis	.	.	.	.	.	.
!LO:LB:g=original	!	!LO:LB:g=original	!	!LO:LB:g=original	!	!	!
=81	=81	=81	=81	=81	=81	=81	=81
1D	pa-	1d	do-	1f	no-	2a\	no-
.	.	.	.	.	.	2b-\	.
2AA/	.	2c\	-na	2f\	-bis	2cc\	-bis
=82	=82	=82	=82	=82	=82	=82	=82
2BB-/	.	4B-\	no-	1f	pa-	2dd\	pa-
.	.	4A\	-bis	.	.	.	.
1C	-cem,	1G	pa-	.	.	1cc	.
.	.	.	.	2e\	.	.	.
=83	=83	=83	=83	=83	=83	=83	=83
4F\	do-	2A\	-cem	2f\	-cem	2cc\	-cem,
4E\	.	.	.	.	.	.	.
4F\	.	2c\	do-	2f\	do-	2cc\	do-
4G\	.	.	.	.	.	.	.
4A\	.	2c\	-na	2f\	-na	2cc\	-na
4F\	-na	.	.	.	.	.	.
=84	=84	=84	=84	=84	=84	=84	=84
2c\	no-	1c	no-	2f\	no-	2cc\	no-
2C/	.	.	.	2e\	.	1g	-bis
2C#X/	-bis	2A\	-bis,	2e\	-bis	.	.
=85	=85	=85	=85	=85	=85	=85	=85
4D/	pa-	1A	no-	2e\	pa-	1.f	pa-
4C#X/	.	.	.	.	.	.	.
4D\	.	.	.	2d\	.	.	.
4E\	.	.	.	.	.	.	.
4F\	.	2A\	-bis	2d\	-cem	.	.
4D\	-cem	.	.	.	.	.	.
=86	=86	=86	=86	=86	=86	=86	=86
2A\	pa-	2A\	pa-	2d\	do-	1e	-cem
2AA/	-cem,	2A\	-cem	2c#X\	.	.	.
2r	.	2A\	da	2a\	-na	2r	.
!LO:LB:g=original	!	!	!	!	!	!LO:LB:g=original	!
=87	=87	=87	=87	=87	=87	=87	=87
!LO:TX:a:t=1.	!	!	!	!	!	!LO:TX:a:t=1.	!
1.r	.	1Bn	no-	2a\	no-	1.r	.
.	.	.	.	2g\	.	.	.
.	.	2c#X\	-bis,	2g\	-bis	.	.
=88	=88	=88	=88	=88	=88	=88	=88
2r	.	1d	pa-	2g\	pa-	1a	do-
2d\	Do-	.	.	2f\	.	.	.
2d\	-na	2d\	-cem	2f\	-cem	2a\	-na
!	!	!LO:LB:g=original	!	!LO:LB:g=original	!	!	!
=89	=89	=89	=89	=89	=89	=89	=89
1.G#X	no-	1d	do-	1e	do-	1bn	no-
.	.	2d\	-na	2e\	-na	2b\	-bis
=90	=90	=90	=90	=90	=90	=90	=90
1A	.	2.c\	no-	2e\	no-	1.a	pa-
.	.	.	.	1d	-bis	.	.
.	.	4B-X\	.	.	.	.	.
2F\	-bis,	2A\	-bis	.	.	.	.
=91	=91	=91	=91	=91	=91	=91	=91
!LO:N:vis=1.	!	!	!	!	!	!	!
1E	do-	2Bn\	da	2e\	pa-	1.g#X	-cem,
.	.	2B\	no-	2e\	-cem	.	.
4ryy	.	2B\	-bis	2e\	da	.	.
4D\	-na	.	.	.	.	.	.
=92	=92	=92	=92	=92	=92	=92	=92
1C#X	no-	1c#X	pa-	1e	no-	1a	do-
2C#/	-bis	2c#\	-cem	2e\	-bis,	2a\	-na
=93	=93	=93	=93	=93	=93	=93	=93
2.D\	pa-	1A	do-	1d	do-	1f#X	no-
4E\	.	.	.	.	.	.	.
4D\	.	2A\	-na	2d\	-na	2f#/	-bis
4Cn/	.	.	.	.	.	.	.
=94	=94	=94	=94	=94	=94	=94	=94
1BBn	.	1Bn	no-	1d	no-	2.g\	do-
.	.	.	.	.	.	4a\	.
2BB/	-cem	2B\	-bis	2d\	-bis	4g\	.
.	.	.	.	.	.	4f\	-na
!LO:LB:g=original	!	!	!	!	!	!	!
=95	=95	=95	=95	=95	=95	=95	=95
2.C/	do-	1G	do-	1c	pa-	1e	no-
4D/	.	.	.	.	.	.	.
4C/	.	2G/	-na	2c\	-cem	2e/	-bis
4BB-X/	-na	.	.	.	.	.	.
=96	=96	=96	=96	=96	=96	=96	=96
1AA	no-	1A	no-	1c	do-	1f	do-
2FF/	-bis	2c\	-bis	2f\	.	2a\	-na
!	!	!LO:LB:g=original	!	!	!	!LO:LB:g=original	!
=97	=97	=97	=97	=97	=97	=97	=97
1BB-X	do-	1d	no-	1.f	-na,	1b-	no-
2F\	-na	2c\	-bis	.	.	2a\	-bis
=98	=98	=98	=98	=98	=98	=98	=98
2C/	no-	2c\	da	2f\	do-	1g	no-
2C/	.	2c\	no-	2e\	.	.	.
2C#X/	-bis	2c#X\	-bis	2e\	-na	2a\	-bis,
!	!	!	!	!LO:LB:g=original	!	!	!
=99	=99	=99	=99	=99	=99	=99	=99
2D\	pa-	1A	pa-	2e\	no-	1.f	pa-
4D\	.	.	.	2d\	.	.	.
4E\	.	.	.	.	.	.	.
4F\	.	2A\	-cem	2d\	-bis	.	.
4G\	.	.	.	.	.	.	.
=100	=100	=100	=100	=100	=100	=100	=100
1A	.	1.A	do-	2d\	pa-	1.e	-cem
.	.	.	.	2c#X\	.	.	.
2AA/	-cem	.	.	2c#\	-cem,	.	.
=101	=101	=101	=101	=101	=101	=101	=101
4D/	do-	1.A	-na	1.d	do-	1.f	do-
4C#X/	.	.	.	.	.	.	.
4D\	.	.	.	.	.	.	.
4E\	.	.	.	.	.	.	.
4F\	.	.	.	.	.	.	.
4D\	-na	.	.	.	.	.	.
!LO:LB:g=original	!	!	!	!	!	!	!
=102	=102	=102	=102	=102	=102	=102	=102
4G\	do-	1.Bn	do-	1.d	-na	1.g	-na
4F#X\	.	.	.	.	.	.	.
4G\	.	.	.	.	.	.	.
4A\	.	.	.	.	.	.	.
4G\	.	.	.	.	.	.	.
4Fn\	-na	.	.	.	.	.	.
=103	=103	=103	=103	=103	=103	=103	=103
4E\	no-	1.c	-na	1.e	no-	1.g	no-
4G\	.	.	.	.	.	.	.
4c\	.	.	.	.	.	.	.
4G\	.	.	.	.	.	.	.
4E\	.	.	.	.	.	.	.
4C/	-bis	.	.	.	.	.	.
=104	=104	=104	=104	=104	=104	=104	=104
4F\	pa-	1.c	no-	1.f	-bis	1.a	-bis
4E\	.	.	.	.	.	.	.
4F\	.	.	.	.	.	.	.
4G\	.	.	.	.	.	.	.
4A\	.	.	.	.	.	.	.
4F\	-cem	.	.	.	.	.	.
=105	=105	=105	=105	=105	=105	=105	=105
4B-X\	do-	1.d	-bis	1.f	pa-	1.b-X	no-
4A\	.	.	.	.	.	.	.
4B-\	.	.	.	.	.	.	.
4c\	.	.	.	.	.	.	.
4B-\	.	.	.	.	.	.	.
4A\	-na	.	.	.	.	.	.
!	!	!LO:LB:g=original	!	!	!	!	!
=106	=106	=106	=106	=106	=106	=106	=106
4G\	no-	1.d	pa-	1.g	-cem,	1.b-	-bis
4F#X\	.	.	.	.	.	.	.
4G\	.	.	.	.	.	.	.
4A\	.	.	.	.	.	.	.
4B-\	.	.	.	.	.	.	.
4G\	-bis	.	.	.	.	.	.
!LO:LB:g=original	!	!	!	!	!	!	!
=107	=107	=107	=107	=107	=107	=107	=107
1A	pa-	1c#X	.	1e	do-	1a	do-
2AA/	-cem	2d\	-cem	2d\	-na	2f/	-na
!	!	!	!	!	!	!LO:LB:g=original	!
=108	=108	=108	=108	=108	=108	=108	=108
1.A	do-	4e\	do-	4c#X\	no-	4e/	no-
.	.	4d\	.	4d\	.	4f/	.
.	.	2c#X\	.	2e\	.	2g/	.
.	.	2d\	-na	2d\	-bis	2f/	-bis
!	!	!	!	!LO:LB:g=original	!	!	!
=109	=109	=109	=109	=109	=109	=109	=109
1.AA	-na	4e\	no-	4c#X\	do-	4e/	pa-
.	.	4d\	.	4d\	.	4f/	.
.	.	2c#X\	.	2e\	.	2g/	.
.	.	2d\	-bis	2d\	-na	2f/	-cem
=110	=110	=110	=110	=110	=110	=110	=110
1.A	pa-	1e	pa-	1c#X	no-	1e	do-
.	.	2A\	-cem	2d\	-bis	2f/	-na
=111	=111	=111	=111	=111	=111	=111	=111
1.AA	.	1.A	pa-	1d	pa-	1.e	pa-
.	.	.	.	2c#X\	.	.	.
=112	=112	=112	=112	=112	=112	=112	=112
!	!	!LO:TX:a:t=2	!	!LO:TX:a:t=2	!	!LO:TX:a:t=2	!
!LO:N:vis=0	!	!LO:N:vis=0	!	!	!	!LO:N:vis=0	!
0.D	-cem.	0.A	-cem.	0.d	-cem.	0.f#X	-cem.
=113	=113	=113	=113	=113	=113	=113	=113
.	.	.	.	.	.	.	.
==	==	==	==	==	==	==	==
*-	*-	*-	*-	*-	*-	*-	*-
!!!system-decoration: [(s1,s2,s3,s4)]
!!!ENC: Zofia Niedbalska
!!!END: 2021-01-24
!!!ENC: Andrzej Borzym
!!!END: 2021-01-19
